svg/300/outlined/fertile.svg

<svg xmlns="http://www.w3.org/2000/svg" width="48" height="48" viewBox="0 -960 960 960"><path d="M480.067-100.001q-78.836 0-148.204-29.925-69.369-29.925-120.682-81.225-51.314-51.3-81.247-120.65Q100.001-401.15 100.001-480v-339.997L326-650.152q32.539-49.692 71.077-99.5Q435.616-799.46 480-849.613q40.384 45.769 79.846 96.499Q599.307-702.383 633-650.152l226.999-169.845V-480q0 78.85-29.92 148.199-29.92 69.35-81.21 120.65-51.291 51.3-120.629 81.225-69.337 29.925-148.173 29.925Zm-.104-45.384q140.104 0 237.378-97.247Q814.615-339.88 814.615-480v-249.23L620.461-583.922q-40.538-65.693-70.269-108.001Q520.461-734.23 480-782.538q-40.461 48.692-71.384 92.385-30.923 43.692-69.077 106.231L145.385-729.23V-480q0 140.12 97.237 237.368 97.236 97.247 237.341 97.247ZM480-464.461Z"/></svg>

<svg xmlns="http://www.w3.org/2000/svg" width="48" height="48" viewBox="0 -960 960 960"><path d="M480.07-100q-78.84 0-148.21-29.93-69.37-29.92-120.68-81.22T129.93-331.8Q100-401.15 100-480v-340l226 169.85q32.54-49.69 71.08-99.5T480-849.61q40.38 45.77 79.85 96.5 39.46 50.73 73.15 102.96L860-820v340q0 78.85-29.92 148.2t-81.21 120.65q-51.29 51.3-120.63 81.22Q558.9-100 480.07-100Zm-.11-45.39q140.11 0 237.38-97.24 97.27-97.25 97.27-237.37v-249.23L620.46-583.92q-40.54-65.69-70.27-108-29.73-42.31-70.19-90.62-40.46 48.69-71.38 92.39-30.93 43.69-69.08 106.23L145.39-729.23V-480q0 140.12 97.23 237.37 97.24 97.24 237.34 97.24Zm.04-319.07Z"/></svg>
